X:20
T:The Blackthorn Stick
R:jig
M:6/8
L:1/8
K:Gmaj
|:d|gfg ege|dBG AGE|DGG FGA|BGB A2 d|
gfg age|dBG AGE|DGG FGA|BGG G2:|
|:d|edd gdd|edd gdd|e2 e gfg|edB A2 d|
gfg age|dBG AGE|DGG FGA|BGG G2:|

